app/img/ob-player--mute.svg

<?xml version="1.0" encoding="utf-8"?>
<!-- Generator: Adobe Illustrator 17.1.0, SVG Export Plug-In . SVG Version: 6.00 Build 0)  -->
<!DOCTYPE svg PUBLIC "-//W3C//DTD SVG 1.1//EN" "http://www.w3.org/Graphics/SVG/1.1/DTD/svg11.dtd">
<svg version="1.1" id="Layer_1" xmlns:sketch="http://www.bohemiancoding.com/sketch/ns"
	 xmlns="http://www.w3.org/2000/svg" xmlns:xlink="http://www.w3.org/1999/xlink" x="0px" y="0px" viewBox="0 0 18 19"
	 enable-background="new 0 0 18 19" xml:space="preserve">
<title></title>
<desc></desc>
<g id="Page-1">
	<g id="Icons-AV" transform="translate(-169.000000, -170.000000)">
		<g id="volume-off" transform="translate(169.000000, 170.000000)">
			<path id="Shape" fill="#FFFFFF" d="M13.5,9c0-1.8-1-3.3-2.5-4v2.2l2.5,2.5V9L13.5,9z M16,9c0,0.9-0.2,1.8-0.5,2.6l1.5,1.5
				c0.7-1.2,1-2.7,1-4.2c0-4.3-3-7.9-7-8.8v2.1C13.9,3.2,16,5.8,16,9L16,9z M1.3,0L0,1.3L4.7,6H0v6h4l5,5v-6.7l4.3,4.3
				c-0.7,0.5-1.4,0.9-2.3,1.2v2.1c1.4-0.3,2.6-0.9,3.7-1.8l2,2l1.3-1.3l-9-9L1.3,0L1.3,0z M9,1L6.9,3.1L9,5.2V1L9,1z"/>
		</g>
	</g>
</g>
</svg>

<?xml version="1.0" ?><svg height="19px" version="1.1" viewBox="0 0 18 19" width="18px" xmlns="http://www.w3.org/2000/svg" xmlns:sketch="http://www.bohemiancoding.com/sketch/ns" xmlns:xlink="http://www.w3.org/1999/xlink"><title/><desc/><defs/><g fill="none" fill-rule="evenodd" id="Page-1" stroke="none" stroke-width="1"><g fill="#000000" id="Icons-AV" transform="translate(-169.000000, -170.000000)"><g id="volume-off" transform="translate(169.000000, 170.000000)"><path d="M13.5,9 C13.5,7.2 12.5,5.7 11,5 L11,7.2 L13.5,9.7 L13.5,9 L13.5,9 Z M16,9 C16,9.9 15.8,10.8 15.5,11.6 L17,13.1 C17.7,11.9 18,10.4 18,8.9 C18,4.6 15,1 11,0.1 L11,2.2 C13.9,3.2 16,5.8 16,9 L16,9 Z M1.3,0 L0,1.3 L4.7,6 L0,6 L0,12 L4,12 L9,17 L9,10.3 L13.3,14.6 C12.6,15.1 11.9,15.5 11,15.8 L11,17.9 C12.4,17.6 13.6,17 14.7,16.1 L16.7,18.1 L18,16.8 L9,7.8 L1.3,0 L1.3,0 Z M9,1 L6.9,3.1 L9,5.2 L9,1 L9,1 Z" id="Shape"/></g></g></g></svg>
